X: 1729
T: Appalachen
R: reel
M: 4/4
K: Gmixolydian
|:dBdfg2f2|dfdcB2G2|GABc dBdf|g3 f gagf|
dBdfg2f2|dfdcB2G2|GABc dBcA|1 G2 GF G4:|2 G2 GF G2 fd||
|:cBfd cfdc|BGGF G2 df|g2 a2 _bgfd|c2 cB c2 df|g2 f2 d2 c_B|
ef dd _B2 GA|_BGdB|AFcA|1 G2 GF G2 fd:|2 G2 GF G4||

